X: 111
M:6/8
L:1/8
K:Glyd % Two sharps in the book
dBB BGG|cAA AFD|DGG FAA|BGG G2:|
K:G
|:d|gfe dcB|edc Bcd|ecA dBG|FAG FED|
gfe dcB|edc Bcd|efg fed|edd d2:|


